X: 4809
T: Boys Of The Puddle
R: jig
M: 6/8
K: Amajor
|:cAA eAA|fff ecB|cAA ecA|BBB Bcd|
cAA eAA|fff ece|a2f ecA|1 BcB Bcd:|2 BcB BAF||
BBB Bcd|c2e cBA|BBB Bce|fff ecA|
B2B Bcd|c2e cde|fff efa|BcB BAF|
FBB Bcd|c2e cBA|B2B Bce|fff ece|
a2f ecA|BcB Ace|fff efa|BcB Bcd||

